Papirus/24x24/panel/teamviewer-indicator-connected.svg

<?xml version="1.0" encoding="UTF-8" standalone="no"?>
<svg xmlns:dc="http://purl.org/dc/elements/1.1/" xmlns:cc="http://creativecommons.org/ns#" xmlns:rdf="http://www.w3.org/1999/02/22-rdf-syntax-ns#" xmlns:svg="http://www.w3.org/2000/svg" xmlns="http://www.w3.org/2000/svg" version="1.1" id="svg2" height="24" viewBox="0 0 6.7733335 6.7733335" width="24">
    <metadata id="metadata16">
        <rdf:RDF>
            <cc:Work rdf:about="">
                <dc:format>
                    image/svg+xml
                </dc:format>
                <dc:type rdf:resource="http://purl.org/dc/dcmitype/StillImage"/>
                <dc:title/>
            </cc:Work>
        </rdf:RDF>
    </metadata>
    <path style="opacity:1;fill:#ffffff;fill-opacity:1;stroke:none;stroke-width:2;stroke-linecap:round;stroke-linejoin:round;stroke-miterlimit:4;stroke-dasharray:none;stroke-opacity:1" d="M 3.1044445,0.84666674 A 2.2577776,2.2577776 0 0 1 5.3622222,3.1044444 2.2577776,2.2577776 0 0 1 4.985191,4.3512934 L 4.6081597,4.7283245 3.8116537,3.9318187 3.0123915,4.7283245 3.5911674,5.3071008 A 2.2577776,2.2577776 0 0 1 3.1044445,5.3622222 2.2577776,2.2577776 0 0 1 0.84666667,3.1044444 2.2577776,2.2577776 0 0 1 3.1044445,0.84666674 Z m 0.5644444,1.41111106 0,0.5638932 -1.1288889,0 0,-0.5638932 L 1.6933334,3.1044444 2.54,3.9511111 l 0,-0.5638933 1.1288889,0 0,0.5638933 L 4.5155556,3.1044444 3.6688889,2.2577778 Z m 2.1409201,1.6679773 0.3990799,0.39908 -1.2010981,1.201098 0.00165,0.00165 L 4.6098134,5.9266666 3.4125738,4.7294269 3.8116537,4.3303472 4.6087109,5.1268534 5.809809,3.9257551 Z" id="path4144"/>
    <g transform="matrix(0.28222222,0,0,0.28222222,-4.0521466,-1.8190454)" id="g4146" style="fill:none;fill-opacity:1">
        <path d="m 30.565,21.238 1.414,1.414 -1.793,1.793 5.172,0 0,2 -5.172,0 1.793,1.793 -1.414,1.414 -4.207,-4.207 z" style="opacity:1;fill:none;fill-opacity:1;fill-rule:nonzero;stroke:none" id="path4148"/>
    </g>
</svg>

<?xml version="1.0" encoding="UTF-8" standalone="no"?>
<svg id="svg2" xmlns:rdf="http://www.w3.org/1999/02/22-rdf-syntax-ns#" xmlns="http://www.w3.org/2000/svg" height="24" viewBox="0 0 6.7733335 6.7733335" width="24" version="1.1" xmlns:cc="http://creativecommons.org/ns#" xmlns:dc="http://purl.org/dc/elements/1.1/">
 <metadata id="metadata16">
  <rdf:RDF>
   <cc:Work rdf:about="">
    <dc:format>image/svg+xml</dc:format>
    <dc:type rdf:resource="http://purl.org/dc/dcmitype/StillImage"/>
    <dc:title/>
   </cc:Work>
  </rdf:RDF>
 </metadata>
 <path id="path4144" d="m3.1044 0.84667a2.2578 2.2578 0 0 1 2.2578 2.2577 2.2578 2.2578 0 0 1 -0.377 1.2469l-0.377 0.377-0.7965-0.7965-0.7993 0.7965 0.5788 0.5788a2.2578 2.2578 0 0 1 -0.4868 0.0551 2.2578 2.2578 0 0 1 -2.2577 -2.2578 2.2578 2.2578 0 0 1 2.2577 -2.2577zm0.56444 1.4111v0.56389h-1.1289v-0.56389l-0.8466 0.8466 0.8467 0.8467v-0.56389h1.1289v0.56389l0.8467-0.8467-0.8467-0.8466zm2.1409 1.668 0.39908 0.39908-1.2011 1.2011 0.00165 0.00165l-0.3996 0.3991-1.1972-1.1973 0.3991-0.3991 0.797 0.7966 1.2011-1.2011z" fill="#fff"/>
 <g id="g4146" fill="none" transform="matrix(.28222 0 0 .28222 -4.0521 -1.819)">
  <path id="path4148" fill="none" d="m30.565 21.238 1.414 1.414-1.793 1.793h5.172v2h-5.172l1.793 1.793-1.414 1.414-4.207-4.207z"/>
 </g>
</svg>
